X:133
T:Waiting for Karen
M:C|
C:© Paul Gitlitz 2007
R:Reel
K:G
"G"DGFG "G/B"BGFG|"D"DFEF "D/A"ADFA|"G"DGFG "G/B"BGFG|1"D"cAFD "G"GDB,D:|2"D"cAFD "G"GABc|!
|:"G"d3^c dBGB|"D"cAFA DFAe|"G"d3^c dBGB|1"D"cAFA "G"GABc:|2"D"cAFA "G"G4| !
|:"G"dBGB "G/B"dBeB|"D"cAFA "C"cefe|"G"dBGB "G/B"dBeB|1"D"cAFA "G"GABc:|2"D"cAFA "G"G4|!
|:"G"G,B,DB, GB,DB,|"D"G,A,DA, FA,DA,|"G"G,B,DB, GB,DB,|1"D"FDEF "G"GDB,D:|2"D"FDEF "G"G4|]
